X:10261
T:March in the Occasional Oratorio,(Harmony). BC.48b
M:C|
L:1/4
Q:90
S:Benjamin Cooke MS.circa 1770, F.Kidson Coll.
R:March
O:England
A:x
Z:John Bagnall
K:D
D | F/A/ d/f/ d A | F2 D2 | d/e/f/g/ f e | d2 A2 |!
 e/d/e/f/ e d | G2 F2|  e f/e/ d D |  A3 z |!
 z A/A/ A2 | z c/c/ c2 | G A E E | A3 |!
|z| z c/B/ c d | e2 "tr" c2 | d e/d/ c B | A2 d2 |!
 A A/A/ A D | A A/A/ "tr" A d | F F/F/ F f | d d/d/ "tr"d f |!
 g f/e/ f e/d/ |  e2 g2 | f e/d/ e d/c/ |"tr"d2 f2 |!
 e d/c/ d D | A2 c d | e d A A | F F/F/ F2 |!
 F F/F/ F2 | A A/A/ c e | d D A A/G/ | F3 |]
